X:57
T:The Youngest Daughter
M:4/4
L:1/8
K:Em
"Em" ~E2 BE dEBe | "D" dBAF DEFD | "Em" ~E2 BE    dEBe | "D" dBAF BE E2 :|
"Em" Eeef   gfed | "D" BdAF DEFD | "Em" Eeed "C"  gfed | "D" BdAF  BE E2 | 
"Em" Eeef   gfed | "D" BdAF DEFA | "D" afge  "C" fde^c | "D" dBAF  BE E2 |]
